X: 582
T: I wish you would marry me now
N: The "I" in the title is actually "J".
R: reel
B: Robert Bremner "A Collection of Scots Reels or Country Dances" 1757 p.58 #2
S: http://imslp.org/wiki/A_Collection_of_Scots_Reels_or_Country_Dances_(Bremner,_Robert)
Z: 2013 John Chambers <jc:trillian.mit.edu>
N: The 2nd strain has initial repeat but no final repeat; not fixed.
M: C|
L: 1/8
K: Am
% - - - - - - - - - - - - - - - - - - - - - - - - -
V: 1
|:\
EA-AB c2ce | dcBA GABG |\
AE E/E/E c2ce | dBgB A/A/A A2 :|\
|:\
age(a g)eae | gedg BGdB |
agea geae | gdgB A/A/A A2 |\
agea geae | gedg BGdB |\
cAdB ecae | gegB A/A/A A2 |]
% - - - - - - - - - - - - - - - - - - - - - - - - -
V: 2 clef=bass middle=d
|:\
a2a2 a2a2 | g2g2 g2g2 |\
a2a2 a2a2 | e2e2 A2A2 :|\
|:\
a2a2 a2a2 | g2g2 g2g2 |
a2a2 a2a2 | e2e2 A2A2 |\
a2a2 a2a2 | g2g2 g2g2 |
a2a2 a2a2 | e2e2 A2A2 :|
% - - - - - - - - - - - - - - - - - - - - - - - - -

%%sep 1 1 500
%%sep 1 1 500
